X:1
T:La gazza ladra (overture theme)
C:Gioachino Rossini
M:4/4
L:1/8
Q:1/4=152
K:G
% Main allegro theme — march-like, energetic, Rossini repeated notes and brilliant run
d4 d2dc | B6 BA | G2AB cBAG | d4 d4 |
d2dc BAGB | A4 G2AB | cBAG ABcd | d8 |
B4 d4 | c4 B4 | A2GA B2cB | d4 d4 |
dcBA GABc | dBAG d4 | GABc dBAG | G8 |]
